X:0809
M:2/4
L:1/8
Q:1/4=100
K:D
fd (3fga|ec (3efg|gd cd|e/d/c/B/ Ag |\
fd (3fga|ec (3efg|fd Ac|d2       D2:|
fdge|afbg|f/g/a Ac|d2 D2:|

